X:15040
T:Scots Came O'er The Border. HSJJ.145
T:Carraroe. HSJJ.145
M:6/8
L:1/8
Q:115
S:HSJ Jackson,Wyresdale,Lancs.1823
R:Jig
O:England
A:Lancashire
H:1823
Z:Chris Partington.
K:C
C3E2G|c/d/ed c2G|c>AAA2g|a>ged2c|C3E2G|c/d/edc2G|!c>AA G>EG|A>cED2C:|
|:c>eg a>fc|a>ged2c|c>eg a>bc'|!c>de/f/ e>dc|c>eg g>ec|a>ged2c|c>AA G>EG
|A>cED2C:|]
